X: 64
T:Pen-rhaw
T:The Spade Head
M:C
L:1/8
Q:150
S:Cadw Twmpath Collection
R:March
A:Wales
Z:brian_martin12345@yahoo.com
K:G
D|G2G>A BABG|c2c>B ABcA|GBAc Bd^ce|dDFA d=cBA|
G2G>A BABG|c2c>d edec|d2d>e dcBA|GBFAG2z:||
d|g2g>a g=fed|c2c>d edec|a2a>b agfe|d2d>e fefd|
g/G/B/d/ g>a g=fed|c/C/E/G/ c>d edec|d/D/G/B/ d>e dcBA|GBFAG2z:||
